assets/img/telegram.svg

<svg width="24" height="24" viewBox="0 0 24 24" fill="none" xmlns="http://www.w3.org/2000/svg">
<path fill-rule="evenodd" clip-rule="evenodd" d="M12 22C17.5228 22 22 17.5228 22 12C22 6.47715 17.5228 2 12 2C6.47715 2 2 6.47715 2 12C2 17.5228 6.47715 22 12 22ZM4.29739 11.1234L17.1015 6.04684C17.5889 5.85363 18.0925 6.28759 17.9855 6.80846L15.7994 17.4421C15.6968 17.9411 15.1216 18.1652 14.7176 17.8636L11.417 15.3986L9.73474 17.1461C9.4395 17.4529 8.92948 17.3287 8.80264 16.9192L7.58837 12.9991L4.3347 12.0216C3.90779 11.8933 3.88267 11.2878 4.29739 11.1234ZM9.54878 13.7577L15.4962 8.40672C15.6386 8.27865 15.4732 8.05243 15.3117 8.15443L8.28842 12.5862C8.16477 12.6642 8.10851 12.8174 8.15166 12.9589L9.09376 16.0474C9.11359 16.1123 9.20648 16.1034 9.21396 16.0358L9.44294 13.9649C9.45177 13.8848 9.4895 13.811 9.54878 13.7577Z" fill="white"/>
</svg>

<svg width="24" height="24" fill="none" xmlns="http://www.w3.org/2000/svg"><path fill-rule="evenodd" clip-rule="evenodd" d="M12 22c5.523 0 10-4.477 10-10S17.523 2 12 2 2 6.477 2 12s4.477 10 10 10zM4.297 11.123l12.805-5.076c.487-.193.99.24.883.761L15.8 17.442a.686.686 0 01-1.081.422l-3.301-2.465-1.682 1.747a.555.555 0 01-.932-.227L7.588 13l-3.253-.977c-.427-.129-.452-.734-.038-.899zm5.252 2.635l5.947-5.351c.143-.128-.023-.355-.184-.253l-7.024 4.432a.328.328 0 00-.136.373l.942 3.088c.02.065.112.056.12-.011l.229-2.071a.327.327 0 01.106-.207z" fill="#fff"/></svg>
